X: 895
T: The Jolly Old Man
N:"Collected by F.O'Neill"
B:O'Neill's 895
Z:Transcribed by Dan G. Petersen, dangp@post6.tele.dk
M:6/8
L:1/8
K:A
A|AGA c2d|edc BcA|GFG B2c|dge dBG|
AGA c2d|edc Bcd|ecA ABG|A3 A2:|
e|aga b2a|age edB|GAB d2d|dge dBG|
|1 aga b2a|age edB|A2A ABG|A3 A2:|
|2 AGA c2d|edc Bcd|ecA ABG|A3 A2|]


